X: 42186
T: Waterman's
R: jig
M: 6/8
K: Eminor
M:7/8
|:E2 B2 BAG|~A2 GA ~B2E|G ~A3 AGA|Bc BG AGF|
E2B2 BAG|~A2 GA ~B2E|G ~A3 ABG|1 AB GF EFD:|2 AB GF EGB||
~g2 e2 efg|f2 B2 BAB|c2 AG ABG|AB cd eaf|
~g2 eB efg|f2 B2 BAB|c2 AG ABG|AB GF EGB|
~g2 eB efg|a2 gf efd|b2 ag fga|g2 fe fdB|
~g2 e2 efg|f2 B2 BAB|c2 AG ABG|AB GF EFD||

